X: 10124
T: Dillon Brown
R: reel
M: 4/4
K: Gmajor
BGAG EGDG|BGAB cedc|BGAG EGDE|GBAG EG~G2:|
Bddg efdc|Bddg eg~g2|Bddg efdB|cABG EGG2|
Bddg efdc|Bddg eg~g2|bage d2Bd|cABG EGG2||

